X: 16210
T: Greencastle, The
R: hornpipe
M: 4/4
K: Gmajor
|:dc|BGDG BGDG|(3gag fg e2dc|BGDG BGDG|dcBc A2dc|
BGDG BGDG|(3gag fg e2dc|Bdge dcAF|G2GF G2:|
|:ga|bagf efga|bagf e2fg|agfe defg|agfe d2 (3def|
gfgd (3efg dB|cBAB cdef|gfgd ecAF|G2GF G2:|

